assets/icons/gift.svg

<svg width="24" height="25" viewBox="0 0 24 25" fill="none" xmlns="http://www.w3.org/2000/svg">
    <path d="M5.68457 11.5938V17.9095C5.68457 18.3283 5.85092 18.7299 6.14703 19.026C6.44314 19.3221 6.84475 19.4885 7.26352 19.4885H16.7372C17.156 19.4885 17.5576 19.3221 17.8537 19.026C18.1498 18.7299 18.3161 18.3283 18.3161 17.9095V11.5938" stroke="currentColor" stroke-width="1.2" stroke-linecap="round" stroke-linejoin="round" fill="none"/>
    <path d="M11.9995 7.25144C11.9995 6.5186 11.7084 5.81578 11.1902 5.29759C10.672 4.7794 9.96921 4.48828 9.23638 4.48828C8.71293 4.48828 8.21091 4.69622 7.84077 5.06636C7.47064 5.4365 7.2627 5.93851 7.2627 6.46197C7.2627 6.98542 7.47064 7.48743 7.84077 7.85757C8.21091 8.22771 8.71293 8.43565 9.23638 8.43565H11.9995M11.9995 7.25144V8.43565M11.9995 7.25144C11.9995 6.5186 12.2907 5.81578 12.8088 5.29759C13.327 4.7794 14.0299 4.48828 14.7627 4.48828C15.2861 4.48828 15.7882 4.69622 16.1583 5.06636C16.5284 5.4365 16.7364 5.93851 16.7364 6.46197C16.7364 6.72115 16.6853 6.9778 16.5861 7.21726C16.487 7.45672 16.3416 7.6743 16.1583 7.85757C15.975 8.04084 15.7575 8.18623 15.518 8.28541C15.2785 8.3846 15.0219 8.43565 14.7627 8.43565H11.9995" stroke="currentColor" stroke-width="1.2" stroke-linejoin="round" fill="none"/>
    <path d="M11.9998 11.5934V19.4882M4.89453 8.43555H19.1051V11.5934H4.89453V8.43555Z" stroke="currentColor" stroke-width="1.2" stroke-linecap="round" stroke-linejoin="round" fill="none"/>
</svg>

<svg xmlns="http://www.w3.org/2000/svg" width="24" height="25" fill="none" viewBox="0 0 24 25"><path stroke="currentColor" stroke-linecap="round" stroke-linejoin="round" stroke-width="1.2" d="M5.685 11.594v6.316a1.58 1.58 0 0 0 1.579 1.578h9.473a1.58 1.58 0 0 0 1.58-1.578v-6.316"/><path stroke="currentColor" stroke-linejoin="round" stroke-width="1.2" d="M12 7.251a2.763 2.763 0 0 0-2.764-2.763 1.974 1.974 0 0 0 0 3.948H12m0-1.185v1.185m0-1.185a2.764 2.764 0 0 1 2.764-2.763 1.974 1.974 0 0 1 0 3.948H12"/><path stroke="currentColor" stroke-linecap="round" stroke-linejoin="round" stroke-width="1.2" d="M12 11.593v7.895M4.895 8.436h14.21v3.157H4.895z"/></svg>
